;FLAVOR:Marlin
;TIME:2974
;Filament used: 1.79798m
;Layer height: 0.2
;MINX:81.581
;MINY:78.081
;MINZ:0.2
;MAXX:138.419
;MAXY:134.92
;MAXZ:7
;Generated with Cura_SteamEngine 4.4.1
M140 S70
M105
M190 S70
M104 S215
M105
M109 S215
M82 ;absolute extrusion mode
M201 X500.00 Y500.00 Z100.00 E5000.00 ;Setup machine max acceleration
M203 X500.00 Y500.00 Z10.00 E50.00 ;Setup machine max feedrate
M204 P500.00 R1000.00 T500.00 ;Setup Print/Retract/Travel acceleration
M205 X8.00 Y8.00 Z0.40 E5.00 ;Setup Jerk
M220 S100 ;Reset Feedrate
M221 S100 ;Reset Flowrate

G28 X0 Y0 G29 Z0;Home

G92 E0 ;Reset Extruder
G1 Z2.0 F3000 ;Move Z Axis up
G1 X10.1 Y20 Z0.28 F5000.0 ;Move to start position
G1 X10.1 Y200.0 Z0.28 F1500.0 E15 ;Draw the first line
G1 X10.4 Y200.0 Z0.28 F5000.0 ;Move to side a little
G1 X10.4 Y20 Z0.28 F1500.0 E30 ;Draw the second line
G92 E0 ;Reset Extruder
G1 Z2.0 F3000 ;Move Z Axis up
G92 E0
G92 E0
G1 F2700 E-6
;LAYER_COUNT:35
;LAYER:0
M107
G0 F6000 X89.397 Y86.924 Z0.2
;TYPE:SKIRT
G1 F2700 E0
G1 F1200 X89.882 Y86.426 E0.02312
G1 X90.067 Y86.242 E0.0318
G1 X90.571 Y85.758 E0.05504
G1 X90.765 Y85.578 E0.06384
G1 X91.28 Y85.116 E0.08685
G1 X91.484 Y84.939 E0.09584
G1 X92.01 Y84.499 E0.11865
G1 X92.203 Y84.343 E0.1269
G1 X92.749 Y83.915 E0.14997
G1 X92.965 Y83.752 E0.15897
G1 X93.53 Y83.34 E0.18223
G1 X93.737 Y83.194 E0.19066
G1 X94.304 Y82.808 E0.21347
G1 X94.529 Y82.661 E0.22241
G1 X95.115 Y82.291 E0.24546
G1 X95.347 Y82.15 E0.25449
G1 X95.95 Y81.798 E0.27771
G1 X96.151 Y81.684 E0.2854
G1 X96.755 Y81.355 E0.30827
G1 X97.011 Y81.222 E0.31787
G1 X97.632 Y80.913 E0.34094
G1 X97.86 Y80.804 E0.34934
G1 X98.489 Y80.516 E0.37235
G1 X98.738 Y80.407 E0.38139
G1 X99.384 Y80.138 E0.40467
G1 X99.617 Y80.045 E0.41301
G1 X100.266 Y79.799 E0.4361
G1 X100.517 Y79.709 E0.44497
G1 X101.166 Y79.488 E0.46777
G1 X101.417 Y79.407 E0.47654
G1 X102.08 Y79.206 E0.49958
G1 X102.327 Y79.136 E0.50812
G1 X102.996 Y78.957 E0.53116
G1 X103.26 Y78.891 E0.54021
G1 X103.941 Y78.734 E0.56345
G1 X104.17 Y78.685 E0.57124
G1 X104.848 Y78.55 E0.59423
G1 X105.142 Y78.497 E0.60417
G1 X105.825 Y78.388 E0.62717
G1 X106.07 Y78.353 E0.63541
G1 X106.754 Y78.266 E0.65834
G1 X107.029 Y78.236 E0.66754
G1 X107.719 Y78.173 E0.69058
G1 X107.949 Y78.156 E0.69826
G1 X108.648 Y78.113 E0.72155
G1 X108.935 Y78.1 E0.7311
G1 X109.626 Y78.083 E0.75409
G1 X109.863 Y78.081 E0.76198
G1 X110.55 Y78.085 E0.78483
G1 X110.828 Y78.092 E0.79408
G1 X111.527 Y78.121 E0.81734
G1 X111.773 Y78.135 E0.82554
G1 X112.456 Y78.185 E0.84832
G1 X112.735 Y78.21 E0.85763
G1 X113.43 Y78.286 E0.88089
G1 X113.696 Y78.32 E0.88981
G1 X114.382 Y78.419 E0.91286
G1 X114.631 Y78.459 E0.92125
G1 X115.307 Y78.579 E0.94408
G1 X115.572 Y78.631 E0.95306
G1 X116.256 Y78.777 E0.97633
G1 X116.504 Y78.834 E0.98479
G1 X117.178 Y79.001 E1.00789
G1 X117.424 Y79.066 E1.01635
G1 X118.089 Y79.254 E1.03933
G1 X118.345 Y79.331 E1.04822
G1 X118.998 Y79.54 E1.07103
G1 X119.261 Y79.63 E1.08027
G1 X119.914 Y79.865 E1.10336
G1 X120.151 Y79.954 E1.11178
G1 X120.801 Y80.212 E1.13504
G1 X121.023 Y80.304 E1.14303
G1 X121.658 Y80.579 E1.16605
G1 X121.914 Y80.696 E1.17541
G1 X122.535 Y80.992 E1.19829
G1 X122.775 Y81.111 E1.2072
G1 X123.389 Y81.43 E1.23021
G1 X123.619 Y81.555 E1.23892
G1 X124.223 Y81.895 E1.26197
G1 X124.441 Y82.022 E1.27036
G1 X125.038 Y82.384 E1.29358
G1 X125.268 Y82.529 E1.30263
G1 X125.842 Y82.905 E1.32545
G1 X126.055 Y83.05 E1.33402
G1 X126.628 Y83.453 E1.35732
G1 X126.825 Y83.596 E1.36542
G1 X127.379 Y84.012 E1.38846
G1 X127.606 Y84.189 E1.39803
G1 X128.139 Y84.621 E1.42085
G1 X128.341 Y84.791 E1.42963
G1 X128.864 Y85.245 E1.45267
G1 X129.043 Y85.404 E1.46063
G1 X129.552 Y85.874 E1.48367
G1 X129.753 Y86.067 E1.49294
G1 X130.25 Y86.56 E1.51623
G1 X130.418 Y86.732 E1.52422
G1 X130.89 Y87.23 E1.54704
G1 X131.082 Y87.441 E1.55653
G1 X131.54 Y87.961 E1.57958
G1 X131.701 Y88.149 E1.58781
G1 X132.142 Y88.683 E1.61085
G1 X132.314 Y88.899 E1.62003
G1 X132.741 Y89.455 E1.64335
G1 X132.894 Y89.661 E1.65188
G1 X133.297 Y90.223 E1.67488
G1 X133.444 Y90.436 E1.68349
G1 X133.824 Y91.005 E1.70625
G1 X133.969 Y91.23 E1.71515
G1 X134.335 Y91.821 E1.73827
G1 X134.465 Y92.039 E1.74671
G1 X134.809 Y92.637 E1.76966
G1 X134.94 Y92.873 E1.77864
G1 X135.266 Y93.488 E1.80179
G1 X135.382 Y93.716 E1.8103
G1 X135.685 Y94.336 E1.83325
G1 X135.801 Y94.586 E1.84241
G1 X136.084 Y95.221 E1.86554
G1 X136.171 Y95.422 E1.87282
G1 X136.435 Y96.062 E1.89585
G1 X136.548 Y96.354 E1.90626
G1 X136.786 Y97.004 E1.92929
G1 X136.871 Y97.246 E1.93782
G1 X137.088 Y97.905 E1.96089
G1 X137.157 Y98.126 E1.96859
G1 X137.354 Y98.79 E1.99163
G1 X137.433 Y99.078 E2.00156
G1 X137.606 Y99.755 E2.0248
G1 X137.658 Y99.971 E2.03219
G1 X137.809 Y100.641 E2.05504
G1 X137.867 Y100.924 E2.06464
G1 X137.994 Y101.604 E2.08765
G1 X138.037 Y101.854 E2.09609
G1 X138.142 Y102.539 E2.11914
G1 X138.178 Y102.807 E2.12813
G1 X138.26 Y103.502 E2.15141
G1 X138.287 Y103.768 E2.1603
G1 X138.344 Y104.452 E2.18313
G1 X138.36 Y104.682 E2.1908
G1 X138.397 Y105.372 E2.21378
G1 X138.407 Y105.655 E2.2232
G1 X138.419 Y106.35 E2.24632
G1 X138.419 Y106.598 E2.25457
G1 X138.409 Y107.29 E2.27758
G1 X138.401 Y107.555 E2.2864
G1 X138.367 Y108.255 E2.30971
G1 X138.348 Y108.537 E2.31911
G1 X138.29 Y109.22 E2.34191
G1 X138.264 Y109.472 E2.35034
G1 X138.183 Y110.16 E2.37338
G1 X138.148 Y110.42 E2.3821
G1 X138.044 Y111.104 E2.40512
G1 X138.001 Y111.359 E2.41372
G1 X137.873 Y112.047 E2.43699
G1 X137.824 Y112.292 E2.4453
G1 X137.677 Y112.962 E2.46812
G1 X137.611 Y113.237 E2.47752
G1 X137.438 Y113.908 E2.50057
G1 X137.37 Y114.156 E2.50912
G1 X137.175 Y114.821 E2.53217
G1 X137.098 Y115.069 E2.54081
G1 X136.881 Y115.727 E2.56385
G1 X136.799 Y115.96 E2.57207
G1 X136.559 Y116.617 E2.59533
G1 X136.459 Y116.879 E2.60466
G1 X136.2 Y117.516 E2.62753
G1 X136.093 Y117.766 E2.63658
G1 X135.81 Y118.398 E2.65961
G1 X135.703 Y118.627 E2.66802
G1 X135.397 Y119.255 E2.69125
G1 X135.285 Y119.476 E2.69949
G1 X134.965 Y120.083 E2.72231
G1 X134.832 Y120.324 E2.73147
G1 X134.484 Y120.931 E2.75474
G1 X134.352 Y121.153 E2.76333
G1 X133.991 Y121.737 E2.78617
G1 X133.841 Y121.97 E2.79538
G1 X133.456 Y122.546 E2.81843
G1 X133.323 Y122.739 E2.82622
G1 X132.921 Y123.303 E2.84926
G1 X132.762 Y123.518 E2.85815
G1 X132.337 Y124.073 E2.8814
G1 X132.162 Y124.293 E2.89075
G1 X131.725 Y124.823 E2.9136
G1 X131.56 Y125.016 E2.92204
G1 X131.102 Y125.536 E2.94509
G1 X130.926 Y125.73 E2.9538
G1 X130.452 Y126.233 E2.97679
G1 X130.274 Y126.416 E2.98528
G1 X129.782 Y126.905 E3.00835
G1 X129.6 Y127.08 E3.01675
G1 X129.089 Y127.556 E3.03998
G1 X128.876 Y127.747 E3.04949
G1 X128.356 Y128.197 E3.07237
G1 X128.168 Y128.354 E3.08051
G1 X127.631 Y128.79 E3.10352
G1 X127.409 Y128.964 E3.1129
G1 X126.849 Y129.386 E3.13622
G1 X126.639 Y129.539 E3.14487
G1 X126.074 Y129.936 E3.16783
G1 X125.875 Y130.072 E3.17585
G1 X125.3 Y130.45 E3.19874
G1 X125.058 Y130.603 E3.20826
G1 X124.459 Y130.966 E3.23155
G1 X124.26 Y131.082 E3.23922
G1 X123.658 Y131.423 E3.26223
G1 X123.411 Y131.557 E3.27157
G1 X122.803 Y131.873 E3.29436
G1 X122.568 Y131.99 E3.3031
G1 X121.942 Y132.289 E3.32617
G1 X121.689 Y132.405 E3.33543
G1 X121.054 Y132.681 E3.35846
G1 X120.828 Y132.774 E3.36658
G1 X120.177 Y133.033 E3.38989
G1 X119.942 Y133.123 E3.39826
G1 X119.291 Y133.358 E3.42128
G1 X119.034 Y133.445 E3.4303
G1 X118.382 Y133.655 E3.45308
G1 X118.135 Y133.73 E3.46167
G1 X117.467 Y133.921 E3.48478
G1 X117.204 Y133.992 E3.49384
G1 X116.532 Y134.159 E3.51687
G1 X116.279 Y134.217 E3.5255
G1 X115.595 Y134.363 E3.54876
G1 X115.332 Y134.415 E3.55768
G1 X114.657 Y134.535 E3.58048
G1 X114.416 Y134.574 E3.5886
G1 X113.729 Y134.674 E3.61169
G1 X113.454 Y134.709 E3.62091
G1 X112.76 Y134.785 E3.64413
G1 X112.514 Y134.808 E3.65235
G1 X111.83 Y134.861 E3.67517
G1 X111.55 Y134.877 E3.6845
G1 X110.851 Y134.906 E3.70777
G1 X110.607 Y134.913 E3.71589
G1 X109.919 Y134.92 E3.73877
G1 X109.659 Y134.918 E3.74742
G1 X108.969 Y134.902 E3.77037
G1 X108.703 Y134.891 E3.77923
G1 X108.006 Y134.851 E3.80245
G1 X107.735 Y134.831 E3.81149
G1 X107.043 Y134.767 E3.8346
G1 X106.785 Y134.739 E3.84323
G1 X106.103 Y134.653 E3.8661
G1 X105.84 Y134.615 E3.87493
G1 X105.15 Y134.504 E3.89818
G1 X104.901 Y134.46 E3.90659
G1 X104.227 Y134.329 E3.92943
G1 X103.952 Y134.27 E3.93878
G1 X103.271 Y134.112 E3.96203
G1 X103.036 Y134.054 E3.97008
G1 X102.368 Y133.877 E3.99307
G1 X102.113 Y133.805 E4.00188
G1 X101.45 Y133.605 E4.02491
G1 X101.189 Y133.521 E4.03403
G1 X100.54 Y133.3 E4.05684
G1 X100.303 Y133.215 E4.06521
G1 X99.653 Y132.97 E4.08831
G1 X99.41 Y132.873 E4.09702
G1 X98.763 Y132.604 E4.12032
G1 X98.523 Y132.5 E4.12902
G1 X97.893 Y132.213 E4.15205
G1 X97.648 Y132.096 E4.16108
G1 X97.028 Y131.787 E4.18412
G1 X96.802 Y131.67 E4.19258
G1 X96.198 Y131.344 E4.21541
G1 X95.967 Y131.214 E4.22423
G1 X95.363 Y130.861 E4.24749
G1 X95.136 Y130.723 E4.25633
G1 X94.556 Y130.357 E4.27914
G1 X94.351 Y130.223 E4.28729
G1 X93.777 Y129.835 E4.31033
G1 X93.549 Y129.675 E4.31959
G1 X92.984 Y129.263 E4.34285
G1 X92.782 Y129.111 E4.35126
G1 X92.236 Y128.685 E4.37429
G1 X92.028 Y128.517 E4.38319
G1 X91.501 Y128.076 E4.40604
G1 X91.307 Y127.908 E4.41458
G1 X90.786 Y127.442 E4.43783
G1 X90.585 Y127.256 E4.44694
G1 X90.089 Y126.78 E4.4698
G1 X89.913 Y126.606 E4.47803
G1 X89.425 Y126.107 E4.50125
G1 X89.228 Y125.898 E4.5108
G1 X88.762 Y125.385 E4.53385
G1 X88.609 Y125.211 E4.54156
G1 X88.159 Y124.685 E4.56458
G1 X87.981 Y124.469 E4.57389
G1 X87.55 Y123.927 E4.59692
G1 X87.395 Y123.725 E4.60539
G1 X86.981 Y123.168 E4.62847
G1 X86.828 Y122.955 E4.63719
G1 X86.434 Y122.386 E4.66021
G1 X86.29 Y122.171 E4.66882
G1 X85.915 Y121.589 E4.69185
G1 X85.766 Y121.347 E4.7013
G1 X85.412 Y120.751 E4.72436
G1 X85.299 Y120.554 E4.73191
G1 X84.962 Y119.947 E4.755
G1 X84.823 Y119.685 E4.76487
G1 X84.51 Y119.067 E4.78791
G1 X84.397 Y118.837 E4.79643
G1 X84.104 Y118.208 E4.81951
G1 X84.003 Y117.981 E4.82777
G1 X83.731 Y117.345 E4.85078
G1 X83.639 Y117.12 E4.85886
G1 X83.389 Y116.481 E4.88169
G1 X83.281 Y116.186 E4.89214
G1 X83.053 Y115.526 E4.91536
G1 X82.98 Y115.307 E4.92304
G1 X82.773 Y114.645 E4.94611
G1 X82.703 Y114.405 E4.95442
G1 X82.518 Y113.739 E4.97741
G1 X82.447 Y113.466 E4.98679
G1 X82.286 Y112.793 E5.00981
G1 X82.23 Y112.54 E5.01843
G1 X82.091 Y111.86 E5.04151
G1 X82.044 Y111.611 E5.04994
G1 X81.927 Y110.926 E5.07305
G1 X81.887 Y110.661 E5.08197
G1 X81.794 Y109.975 E5.10499
G1 X81.761 Y109.699 E5.11424
G1 X81.693 Y109.015 E5.1371
G1 X81.673 Y108.78 E5.14494
G1 X81.625 Y108.084 E5.16815
G1 X81.612 Y107.817 E5.17704
G1 X81.588 Y107.125 E5.20007
G1 X81.583 Y106.878 E5.20829
G1 X81.581 Y106.193 E5.23107
G1 X81.585 Y105.912 E5.24042
G1 X81.608 Y105.218 E5.26351
G1 X81.622 Y104.952 E5.27237
G1 X81.669 Y104.254 E5.29564
G1 X81.688 Y104.014 E5.30365
G1 X81.755 Y103.333 E5.32641
G1 X81.788 Y103.052 E5.33582
G1 X81.881 Y102.364 E5.35891
G1 X81.92 Y102.112 E5.36739
G1 X82.035 Y101.43 E5.39039
G1 X82.084 Y101.167 E5.39929
G1 X82.223 Y100.486 E5.42241
G1 X82.281 Y100.223 E5.43137
G1 X82.443 Y99.549 E5.45442
G1 X82.505 Y99.308 E5.4627
G1 X82.688 Y98.641 E5.4857
G1 X82.761 Y98.391 E5.49436
G1 X82.966 Y97.731 E5.51735
G1 X83.052 Y97.471 E5.52646
G1 X83.281 Y96.816 E5.54954
G1 X83.366 Y96.585 E5.55772
G1 X83.618 Y95.931 E5.58104
G1 X83.718 Y95.683 E5.58993
G1 X83.986 Y95.053 E5.6127
G1 X84.093 Y94.813 E5.62144
G1 X84.385 Y94.186 E5.64444
G1 X84.5 Y93.95 E5.65318
G1 X84.814 Y93.331 E5.67626
G1 X84.941 Y93.091 E5.68529
G1 X85.276 Y92.484 E5.70835
G1 X85.399 Y92.27 E5.71656
G1 X85.753 Y91.674 E5.73962
G1 X85.892 Y91.448 E5.74844
G1 X86.265 Y90.866 E5.77143
G1 X86.42 Y90.633 E5.78074
G1 X86.819 Y90.057 E5.80405
G1 X86.964 Y89.855 E5.81232
G1 X87.373 Y89.303 E5.83517
G1 X87.524 Y89.106 E5.84342
G1 X87.953 Y88.564 E5.86641
G1 X88.143 Y88.333 E5.87636
G1 X88.594 Y87.806 E5.89943
G1 X88.746 Y87.634 E5.90707
G1 X89.211 Y87.122 E5.93007
G1 X89.397 Y86.924 E5.93911
G0 F6000 X89.684 Y87.203
G1 F1200 X90.169 Y86.705 E5.96223
G1 X90.344 Y86.531 E5.97044
G1 X90.848 Y86.047 E5.99368
G1 X91.033 Y85.876 E6.00206
G1 X91.548 Y85.414 E6.02507
G1 X91.741 Y85.246 E6.03358
G1 X92.267 Y84.806 E6.05639
G1 X92.45 Y84.658 E6.06421
G1 X92.996 Y84.23 E6.08729
G1 X93.201 Y84.075 E6.09584
G1 X93.766 Y83.663 E6.11909
G1 X93.962 Y83.525 E6.12707
G1 X94.529 Y83.139 E6.14988
G1 X94.742 Y82.999 E6.15836
G1 X95.328 Y82.629 E6.18141
G1 X95.548 Y82.495 E6.18998
G1 X96.151 Y82.143 E6.2132
G1 X96.342 Y82.036 E6.22048
G1 X96.946 Y81.707 E6.24336
G1 X97.189 Y81.58 E6.25248
G1 X97.81 Y81.271 E6.27555
G1 X98.026 Y81.168 E6.28351
G1 X98.655 Y80.88 E6.30652
G1 X98.891 Y80.777 E6.31508
G1 X99.537 Y80.508 E6.33835
G1 X99.759 Y80.419 E6.34631
G1 X100.408 Y80.173 E6.36939
G1 X100.646 Y80.088 E6.3778
G1 X101.295 Y79.867 E6.4006
G1 X101.533 Y79.79 E6.40892
G1 X102.196 Y79.589 E6.43196
G1 X102.43 Y79.522 E6.44006
G1 X103.099 Y79.343 E6.46309
G1 X103.35 Y79.281 E6.47169
G1 X104.031 Y79.124 E6.49494
G1 X104.248 Y79.077 E6.50232
G1 X104.926 Y78.942 E6.52532
G1 X105.205 Y78.892 E6.53474
G1 X105.888 Y78.783 E6.55775
G1 X106.12 Y78.75 E6.56554
G1 X106.804 Y78.663 E6.58847
G1 X107.065 Y78.635 E6.5972
G1 X107.755 Y78.572 E6.62025
G1 X107.974 Y78.555 E6.62756
G1 X108.673 Y78.512 E6.65085
G1 X108.945 Y78.5 E6.6599
G1 X109.636 Y78.483 E6.68289
G1 X109.861 Y78.481 E6.69038
G1 X110.548 Y78.485 E6.71323
G1 X110.812 Y78.491 E6.72201
G1 X111.511 Y78.52 E6.74528
G1 X111.744 Y78.534 E6.75304
G1 X112.427 Y78.584 E6.77582
G1 X112.691 Y78.608 E6.78464
G1 X113.386 Y78.684 E6.80789
G1 X113.639 Y78.716 E6.81637
G1 X114.325 Y78.815 E6.83943
G1 X114.561 Y78.853 E6.84738
G1 X115.237 Y78.973 E6.87021
G1 X115.489 Y79.022 E6.87875
G1 X116.173 Y79.168 E6.90201
G1 X116.408 Y79.222 E6.91003
G1 X117.082 Y79.389 E6.93313
G1 X117.315 Y79.451 E6.94115
G1 X117.98 Y79.639 E6.96413
G1 X118.223 Y79.712 E6.97257
G1 X118.876 Y79.921 E6.99537
G1 X119.126 Y80.006 E7.00416
G1 X119.779 Y80.241 E7.02724
G1 X120.003 Y80.326 E7.03521
G1 X120.653 Y80.584 E7.05847
G1 X120.864 Y80.671 E7.06606
G1 X121.499 Y80.946 E7.08908
G1 X121.742 Y81.057 E7.09796
G1 X122.363 Y81.353 E7.12084
G1 X122.591 Y81.466 E7.12931
G1 X123.205 Y81.785 E7.15232
G1 X123.423 Y81.903 E7.16056
G1 X124.027 Y82.243 E7.18362
G1 X124.234 Y82.364 E7.19159
G1 X124.831 Y82.726 E7.21481
G1 X125.049 Y82.864 E7.22339
G1 X125.623 Y83.24 E7.24622
G1 X125.825 Y83.377 E7.25433
G1 X126.398 Y83.78 E7.27763
G1 X126.584 Y83.916 E7.2853
G1 X127.138 Y84.332 E7.30834
G1 X127.354 Y84.5 E7.31744
G1 X127.887 Y84.932 E7.34026
G1 X128.079 Y85.093 E7.3486
G1 X128.602 Y85.547 E7.37163
G1 X128.771 Y85.698 E7.37917
G1 X129.28 Y86.168 E7.40221
G1 X129.471 Y86.351 E7.41101
G1 X129.968 Y86.844 E7.43429
G1 X130.128 Y87.007 E7.44189
G1 X130.6 Y87.505 E7.46471
G1 X130.782 Y87.705 E7.4737
G1 X131.24 Y88.225 E7.49675
G1 X131.393 Y88.404 E7.50458
G1 X131.834 Y88.938 E7.52762
G1 X131.997 Y89.143 E7.53633
G1 X132.424 Y89.699 E7.55965
G1 X132.569 Y89.894 E7.56773
G1 X132.972 Y90.456 E7.59073
G1 X133.112 Y90.658 E7.5989
G1 X133.492 Y91.227 E7.62166
G1 X133.629 Y91.441 E7.63011
G1 X133.995 Y92.032 E7.65323
G1 X134.118 Y92.238 E7.66121
G1 X134.462 Y92.836 E7.68416
G1 X134.586 Y93.06 E7.69267
G1 X134.912 Y93.675 E7.71583
G1 X135.023 Y93.892 E7.72393
G1 X135.326 Y94.512 E7.74688
G1 X135.436 Y94.749 E7.75558
G1 X135.719 Y95.384 E7.7787
G1 X135.801 Y95.574 E7.78558
G1 X136.065 Y96.214 E7.80861
G1 X136.173 Y96.492 E7.81853
G1 X136.411 Y97.142 E7.84155
G1 X136.491 Y97.372 E7.84965
G1 X136.708 Y98.031 E7.87272
G1 X136.773 Y98.24 E7.88
G1 X136.97 Y98.904 E7.90304
G1 X137.046 Y99.177 E7.91247
G1 X137.219 Y99.854 E7.93571
G1 X137.268 Y100.059 E7.94272
G1 X137.419 Y100.729 E7.96556
G1 X137.474 Y100.997 E7.97466
G1 X137.601 Y101.677 E7.99767
G1 X137.642 Y101.915 E8.0057
G1 X137.747 Y102.6 E8.02875
G1 X137.781 Y102.854 E8.03727
G1 X137.863 Y103.549 E8.06055
G1 X137.888 Y103.801 E8.06897
G1 X137.945 Y104.485 E8.0918
G1 X137.96 Y104.704 E8.0991
G1 X137.997 Y105.394 E8.12208
G1 X138.007 Y105.662 E8.131
G1 X138.019 Y106.357 E8.15412
G1 X138.019 Y106.592 E8.16194
G1 X138.009 Y107.284 E8.18496
G1 X138.001 Y107.536 E8.19334
G1 X137.967 Y108.236 E8.21665
